src/assets/img/Careers/icons/briefcase.fill.svg

<svg width="24" height="19" viewBox="0 0 24 19" fill="none" xmlns="http://www.w3.org/2000/svg">
<g id="briefcase.fill">
<g id="Group">
<path id="Vector" d="M10.5024 12.4516C9.82851 12.4516 9.43379 12.0722 9.43379 11.3915V10.6038C6.60356 10.4092 3.78295 9.82575 0.856445 8.70732V7.10271C4.45681 8.69761 8.06681 9.26168 11.9945 9.26168C15.9318 9.26168 19.5418 8.69761 23.1422 7.10271V8.70732C20.2157 9.82575 17.395 10.4092 14.5648 10.6038V11.3915C14.5648 12.0722 14.1701 12.4516 13.4962 12.4516H10.5024ZM3.83108 18.9188H20.1675C22.1602 18.9188 23.1422 17.9463 23.1422 15.9526V6.49003C23.1422 4.49636 22.1602 3.52385 20.1675 3.52385H3.83108C1.84799 3.52385 0.856445 4.49636 0.856445 6.49003V15.9526C0.856445 17.9463 1.84799 18.9188 3.83108 18.9188ZM7.11378 4.36994H8.6059V2.64858C8.6059 1.90947 9.03911 1.49129 9.78999 1.49129H14.2086C14.9595 1.49129 15.3831 1.90947 15.3831 2.64858V4.35049H16.8752V2.75556C16.8752 0.927226 15.9221 0.0714111 14.1798 0.0714111H9.80921C8.16308 0.0714111 7.11378 0.927226 7.11378 2.75556V4.36994Z" fill="#B3B3B3"/>
</g>
</g>
</svg>

<svg width="24" height="19" fill="none" xmlns="http://www.w3.org/2000/svg"><path d="M10.502 12.452c-.673 0-1.068-.38-1.068-1.06v-.788A29.335 29.335 0 0 1 .856 8.707V7.103c3.6 1.595 7.21 2.159 11.139 2.159 3.937 0 7.547-.564 11.147-2.16v1.605a29.336 29.336 0 0 1-8.577 1.897v.788c0 .68-.395 1.06-1.069 1.06h-2.994Zm-6.67 6.467h16.335c1.993 0 2.975-.973 2.975-2.966V6.49c0-1.994-.982-2.966-2.974-2.966H3.83c-1.983 0-2.975.972-2.975 2.966v9.463c0 1.993.992 2.966 2.975 2.966Zm3.282-14.55h1.492V2.65c0-.74.433-1.158 1.184-1.158h4.419c.75 0 1.174.418 1.174 1.158V4.35h1.492V2.756C16.875.927 15.922.07 14.18.07H9.81c-1.647 0-2.696.856-2.696 2.685V4.37Z" fill="#B3B3B3"/></svg>
